X:1
T:Palestine, 12.9.12.9 D
T:From Harmonia Sacra, by Joseph Funk, 1847
T:Palestine, 12.9.12.9 D
T:Public Domain
C:From Harmonia Sacra, by Joseph Funk, 1847
Z:Public Domain
%%score ( 1 2 ) ( 3 4 )
L:1/8
M:3/4
K:Bb
V:1 treble 
V:2 treble 
V:3 bass 
V:4 bass 
V:1
 [DF]>[DF] | D2 [CE]2 [FB]2 | [Fd]3 [Fc] [FB]2 | [EG]2 [GB]2 [EG]2 | E4 E>E | D2 [DF]2 [FB]2 | %6
 [FB]2 F2 [Fd]2 | [Fc]4 [DF]>[DF] | D2 [DF]2 [FB]2 | [Fd]3 [Fc] [FB]2 | [EG]2 [Ge]2 [Ec]2 | %11
 (B2 A2) F>[FA] | [FB]2 [Fd]2 [Ff]2 | [EB]3 [Gc] [FA]2 | [FB]4 [FA]>[FB] | [Fc]3 A [Ac]2 | %16
 [Ac]3 [GB] [FA]2 | [Fd]2 [FB]2 [Fd]2 | [Fd]4 [FA]>[FB] | [Fc]3 [FB] [FA]2 | (cB) [FA]2 [=EG]2 | %21
 F4 [DF]>[DF] | D2 [DF]2 [FB]2 | [Fd]3 [Ec] [DB]2 | G2 [Ee]2 [Gc]2 | (B2 A2) F>[FA] | %26
 [FB]2 [Fd]2 [Ff]2 | [EA]3 [Gc] [FA]2 | [FB]4 |] %29
V:2
 x2 | D2 x4 | x6 | x6 | E4 E>E | D2 x4 | x2 F2 x2 | x6 | D2 x4 | x6 | x6 | F4 F3/2 x/ | x6 | x6 | %14
 x6 | x3 A x2 | x6 | x6 | x6 | x6 | F2 x4 | F4 x2 | D2 x4 | x6 | G2 x4 | F4 F3/2 x/ | x6 | x6 | %28
 x4 |] %29
V:3
 [B,,B,]>[B,,B,] | [B,,F,]2 [B,,B,]2 [B,,D]2 | [B,,B,]3 [C,A,] [D,B,]2 | [E,B,]2 [E,B,]2 [E,B,]2 | %4
 [E,G,]4 [E,G,]>[E,G,] | [B,,F,]2 [B,,B,]2 [B,,D]2 | [B,D]2 B,2 (B,,C,) | [F,A,]4 [B,,B,]>[B,,B,] | %8
 [B,,F,]2 [B,,B,]2 [B,,D]2 | [B,,B,]3 [C,A,] [D,B,]2 | [E,B,]2 [E,B,]2 [E,E]2 | %11
 (D2 C2) [E,A,]>[E,C] | [D,B,]2 [B,,B,]2 [D,B,]2 | [G,B,]3 [E,C] [F,C]2 | [B,,D]4 [F,C]>[F,B,] | %15
 [F,A,]3 [F,C] [F,C]2 | [F,A,]3 [F,B,] [F,C]2 | B,2 [B,D]2 B,2 | B,4 [F,C]>[F,C] | %19
 [F,C]3 [F,C] [F,C]2 | [B,,D]2 [C,C]2 [C,B,]2 | [F,A,]4 [B,,B,]>[B,,B,] | %22
 [B,,F,]2 [B,,B,]2 [B,,D]2 | [B,,B,]3 [C,A,] [D,B,]2 | [E,B,]2 [E,B,]2 [E,E]2 | %25
 (D2 C2) [E,A,]>[E,C] | [D,B,]2 [B,,B,]2 [D,B,]2 | [G,B,]3 [E,C] [F,C]2 | [B,,D]4 |] %29
V:4
 x2 | x6 | x6 | x6 | x6 | x6 | x2 B,2 B,2 | x6 | x6 | x6 | x6 | E,4 x2 | x6 | x6 | x6 | x6 | x6 | %17
 B,2 B,2 x2 | B,4 x2 | x6 | x6 | x6 | x6 | x6 | x6 | D,4 x2 | x6 | x6 | x4 |] %29

